apps/web/public/images/services/conseillers-numerique-logo-small.svg

<svg
  width="21"
  height="24"
  viewBox="0 0 21 24"
  fill="none"
  xmlns="http://www.w3.org/2000/svg"
>
    <path
      d="M10.4323 0L0 6V18L10.4323 24L20.806 18V6L10.4323 0Z"
      fill="#E1000F"
    />
    <path
      d="M13.3908 10.2732H17.3175V7.99025L10.4311 4.00977L3.48596 7.99025V15.9512L10.4311 19.9903L17.3175 15.9512V13.6976H13.3908V10.2732Z"
      fill="white"
    />
    <path
      d="M13.3918 13.6974V10.273L10.432 8.54614L7.4137 10.273V13.6974L10.432 15.4242L13.3918 13.6974Z"
      fill="#000091"
    />
</svg>

<svg width="21" height="24" viewBox="0 0 21 24" fill="none" xmlns="http://www.w3.org/2000/svg"><path d="M10.432 0 0 6v12l10.432 6 10.374-6V6z" fill="#E1000F"/><path d="M13.39 10.273h3.927V7.99l-6.886-3.98-6.945 3.98v7.961l6.945 4.04 6.887-4.04v-2.253H13.39z" fill="#fff"/><path d="M13.392 13.697v-3.424l-2.96-1.727-3.018 1.727v3.424l3.018 1.727z" fill="#000091"/></svg>
